X:1
T:Cady Laddy
M:3/2
L:1/8
R:Triple Hornpipe
B:Walsh - Caledonian Country Dances, vol. 2
K:G
E2|G2B2d4G2d2|edcB c4 A2B2|G2B2de2G2g2|f2e2d2 B4||
g2|f2e2 g4B2d2|edcB c2A4g2|f2e2 g4 B2d2|e2g2d2 B4 ga|
bagf g4 B2d2|edcB c2A4B2|G2B2 d4 G2g2|f2e2d2A B4||
